X:2230
T:Gingerhog's No.2
O:england
S:Phil Cunningham arr Hamish
M:4/4
K:D
M:9/8
"D"Add "D"fdd "A"e2f|"D"Add "D"efd G"G"FdB|"D"Add "D"fdd "D"e2f|\
"G"GBd "D"Afd "A"e3:|
"D"a2f "D"fef "A"def|"D"aff "D"efA "G"B3|"D"a2f "D"fef "D"dBA|\
"G"GBd "D"Afd "A"e3:|
